X:1
T:Title
%%score { ( 1 4 ) | ( 2 3 ) }
L:1/8
Q:1/4=110
M:4/4
K:Ab
V:1 treble nm="Grand Piano"
V:4 treble 
V:2 bass 
V:3 bass 
V:1
 [CE]3 [DF] [CE]2 [A,C]2 | [CE]2 [CA]2 [CE]4 | [DF]3 [FA] [EG]2 [DF]2 | [DF]3 [CE] [CE]4 | %4
w: John~R.~Sweney * * *||||
 E3 B AGFG | [EA]2 [EB]2 [Ec]4 | [DF]3 [FB] A2 E2 | c2 B2 A4 | c2 c>c c2 C2 | F2 G2 A4 | %10
w: ||||||
 [GB]2 [GB]>[GB] [GB]2 d2 | c2 c>c c4 | e2 e>d c2 cB | [A,EA]2 [A,EG]2 [A,DF]4 | %14
w: ||||
 [A,CE]2 C>E A2 [Ec]2 | [DB]4 [CA]4 |] %16
w: ||
V:2
 [A,,A,]3 [A,,A,] [A,,A,]2 [A,,E,]2 | [A,,A,]2 [A,,E,]2 [A,,A,]4 | [D,A,]3 [D,A,] [D,A,]2 [D,A,]2 | %3
 [A,,A,]3 [A,,A,] [A,,A,]4 | z4 .C2 z2 | [C,A,]2 [B,,G,]2 [A,,A,]4 | %6
 [D,A,]3 [D,D] [E,CE]2 [E,A,C]2 | [E,A,E]2 [E,G,D]2[K:treble] [A,C]4 | C2 C>C C2[K:bass] C,2 | %9
 F,2 G,2 A,4 | [E,E]2 [E,E]>[E,E] [E,E]2 [G,B,E]2 | [A,E]2 [A,E]>[A,E] [A,E]4 | %12
 [A,CE]2 [A,CE]>[A,B,E] [A,E]2 [A,,A,][B,,G,] | C,2 C,2 D,4 | A,,2 C,>E, A,2 [A,,A,]2 | %15
 [E,G,]4 [A,,A,]4 |] %16
V:3
 x8 | x8 | x8 | x8 | [E,G,]3 [E,DE] [E,E]-[E,B,E] [D,B,E]2 | x8 | x8 | x4[K:treble] x4 | %8
 x6[K:bass] x2 | x8 | x8 | x8 | x8 | x8 | x8 | x8 |] %16
V:4
 x8 | x8 | x8 | x8 | x8 | x8 | x8 | x8 | x8 | x8 | x8 | x8 | z4 z2 E2 | x8 | x8 | x8 |] %16

